; generated by PrusaSlicer 2.9.4 on 2026-05-05 at 16:06:18 UTC

; 

; external perimeters extrusion width = 0.42mm
; perimeters extrusion width = 0.44mm
; infill extrusion width = 0.44mm
; solid infill extrusion width = 0.44mm
; top infill extrusion width = 0.40mm
; first layer extrusion width = 0.42mm

M201 X500 Y500 Z100 E5000 ; sets maximum accelerations, mm/sec^2
M203 X500 Y500 Z10 E60 ; sets maximum feedrates, mm / sec
M204 S500 T1000 ; sets acceleration (S) and retract acceleration (R), mm/sec^2
M205 X8.00 Y8.00 Z0.40 E5.00 ; sets the jerk limits, mm/sec
M205 S0 T0 ; sets the minimum extruding and travel feed rate, mm/sec

; printing object cantoneira (1).stl id:0 copy 0
; stop printing object cantoneira (1).stl id:0 copy 0

;TYPE:Custom
G90 ; use absolute coordinates
M83 ; extruder relative mode
M104 S150 ; set temporary nozzle temp to prevent oozing during homing
M140 S60 ; set final bed temp
G4 S30 ; allow partial nozzle warmup
G28 ; home all axis
G1 Z50 F240
G1 X2.0 Y10 F3000
M104 S205 ; set final nozzle temp
M190 S60 ; wait for bed temp to stabilize
M109 S205 ; wait for nozzle temp to stabilize
G1 Z0.28 F240
G92 E0
G1 X2.0 Y140 E10 F1500 ; prime the nozzle
G1 X2.3 Y140 F5000
G92 E0
G1 X2.3 Y10 E10 F1200 ; prime the nozzle
G92 E0
G21 ; set units to millimeters
G90 ; use absolute coordinates
M83 ; use relative distances for extrusion
; Filament gcode
M107
;LAYER_CHANGE
;Z:0.2
;HEIGHT:0.2
G1 E-5 F3600
G1 Z.2 F9000
G1 X94.625 Y99.486
G1 E5 F2400
M204 S500
;TYPE:Skirt/Brim
;WIDTH:0.42
G1 F1200
G1 X96.7 Y98.82 E.06833
G1 X134.3 Y98.82 E1.17892
G1 X135.93 Y99.214 E.05258
G1 X137.199 Y100.31 E.05257
G1 X137.866 Y102.385 E.06834
G1 X137.866 Y116.042 E.42821
G1 X137.471 Y117.672 E.05259
G1 X136.375 Y118.942 E.0526
G1 X134.3 Y119.608 E.06833
G1 X96.7 Y119.608 E1.17892
G1 X95.07 Y119.213 E.05259
G1 X93.801 Y118.117 E.05257
G1 X93.134 Y116.042 E.06834
G1 X93.134 Y102.385 E.42821
G1 X93.529 Y100.755 E.05259
G1 X94.585 Y99.531 E.05069
G1 X94.882 Y99.809 F9000
G1 F1200
G1 X94.989 Y99.694 E.00493
G1 X96.7 Y99.197 E.05586
G1 X134.3 Y99.197 E1.17892
G1 X135.835 Y99.59 E.04968
G1 X136.991 Y100.674 E.04969
G1 X137.489 Y102.385 E.05587
G1 X137.489 Y116.042 E.42821
G1 X137.095 Y117.577 E.04969
G1 X136.011 Y118.733 E.04969
G1 X134.3 Y119.231 E.05587
G1 X96.7 Y119.231 E1.17892
G1 X95.165 Y118.837 E.04969
G1 X94.009 Y117.753 E.04969
G1 X93.511 Y116.042 E.05587
G1 X93.511 Y102.385 E.42821
G1 X93.905 Y100.85 E.04969
G1 X94.841 Y99.853 E.04288
G1 E-3.5 F3600
;WIPE_START
G1 F7200
G1 X94.882 Y99.809 E-.02857
G1 X94.989 Y99.694 E-.07461
G1 X96.7 Y99.197 E-.84632
G1 X97.859 Y99.197 E-.5505
;WIPE_END
; printing object cantoneira (1).stl id:0 copy 0
G1 X97.764 Y103.452 F9000
G1 E5 F2400
;TYPE:Perimeter
;WIDTH:0.419999
G1 F1200
G1 X133.236 Y103.452 E1.1122
G1 X133.236 Y107.014 E.11168
G1 X97.764 Y107.014 E1.1122
G1 X97.764 Y103.512 E.1098
G1 X97.387 Y103.075 F9000
G1 F1200
G1 X133.613 Y103.075 E1.13584
G1 X133.613 Y107.391 E.13532
G1 X97.387 Y107.391 E1.13584
G1 X97.387 Y103.135 E.13344
G1 X97.01 Y102.698 F9000
;TYPE:External perimeter
G1 F1200
G1 X133.99 Y102.698 E1.15948
G1 X133.99 Y107.768 E.15897
G1 X97.01 Y107.768 E1.15948
G1 X97.01 Y102.758 E.15708
G1 E-3.5 F3600
;WIPE_START
G1 F7200
G1 X97.01 Y102.698 E-.0285
G1 X100.108 Y102.698 E-1.4715
;WIPE_END
G1 X133.115 Y104.339 F9000
G1 E5 F2400
;TYPE:Solid infill
;WIDTH:0.422268
G1 F1200
G1 X132.518 Y103.742 E.02663
G1 X131.981 Y103.742 E.01694
G1 X132.945 Y104.706 E.043
G1 X132.945 Y105.243 E.01694
G1 X131.445 Y103.742 E.06693
G1 X130.908 Y103.742 E.01694
G1 X132.945 Y105.779 E.09087
G1 X132.945 Y106.316 E.01694
G1 X130.372 Y103.742 E.1148
G1 X129.835 Y103.742 E.01694
G1 X132.817 Y106.723 E.133
G1 X132.28 Y106.723 E.01694
G1 X129.299 Y103.742 E.13298
G1 X128.762 Y103.742 E.01694
G1 X131.744 Y106.723 E.133
G1 X131.207 Y106.723 E.01694
G1 X128.226 Y103.742 E.13298
G1 X127.689 Y103.742 E.01694
G1 X130.671 Y106.723 E.133
G1 X130.134 Y106.723 E.01694
G1 X127.153 Y103.742 E.13298
G1 X126.617 Y103.742 E.01691
G1 X129.598 Y106.723 E.13298
G1 X129.061 Y106.723 E.01694
G1 X126.08 Y103.742 E.13298
G1 X125.544 Y103.742 E.01691
G1 X128.525 Y106.723 E.13298
G1 X127.988 Y106.723 E.01694
G1 X125.007 Y103.742 E.13298
G1 X124.471 Y103.742 E.01691
G1 X127.452 Y106.723 E.13298
G1 X126.915 Y106.723 E.01694
G1 X123.934 Y103.742 E.13298
G1 X123.398 Y103.742 E.01691
G1 X126.379 Y106.723 E.13298
G1 X125.843 Y106.723 E.01691
G1 X122.861 Y103.742 E.133
G1 X122.325 Y103.742 E.01691
G1 X125.306 Y106.723 E.13298
G1 X124.77 Y106.723 E.01691
G1 X121.788 Y103.742 E.133
G1 X121.252 Y103.742 E.01691
G1 X124.233 Y106.723 E.13298
G1 X123.697 Y106.723 E.01691
G1 X120.715 Y103.742 E.133
G1 X120.179 Y103.742 E.01691
G1 X123.16 Y106.723 E.13298
G1 X122.624 Y106.723 E.01691
G1 X119.642 Y103.742 E.133
G1 X119.106 Y103.742 E.01691
G1 X122.087 Y106.723 E.13298
G1 X121.551 Y106.723 E.01691
G1 X118.569 Y103.742 E.133
G1 X118.033 Y103.742 E.01691
G1 X121.014 Y106.723 E.13298
G1 X120.478 Y106.723 E.01691
G1 X117.496 Y103.742 E.133
G1 X116.96 Y103.742 E.01691
G1 X119.941 Y106.723 E.13298
G1 X119.405 Y106.723 E.01691
G1 X116.423 Y103.742 E.133
G1 X115.887 Y103.742 E.01691
G1 X118.868 Y106.723 E.13298
G1 X118.332 Y106.723 E.01691
G1 X115.35 Y103.742 E.133
G1 X114.814 Y103.742 E.01691
G1 X117.795 Y106.723 E.13298
G1 X117.259 Y106.723 E.01691
G1 X114.277 Y103.742 E.133
G1 X113.741 Y103.742 E.01691
G1 X116.722 Y106.723 E.13298
G1 X116.186 Y106.723 E.01691
G1 X113.205 Y103.742 E.13298
G1 X112.668 Y103.742 E.01694
G1 X115.649 Y106.723 E.13298
G1 X115.113 Y106.723 E.01691
G1 X112.132 Y103.742 E.13298
G1 X111.595 Y103.742 E.01694
G1 X114.576 Y106.723 E.13298
G1 X114.04 Y106.723 E.01691
G1 X111.059 Y103.742 E.13298
G1 X110.522 Y103.742 E.01694
G1 X113.504 Y106.723 E.133
G1 X112.967 Y106.723 E.01694
G1 X109.986 Y103.742 E.13298
G1 X109.449 Y103.742 E.01694
G1 X112.431 Y106.723 E.133
G1 X111.894 Y106.723 E.01694
G1 X108.913 Y103.742 E.13298
G1 X108.376 Y103.742 E.01694
G1 X111.358 Y106.723 E.133
G1 X110.821 Y106.723 E.01694
G1 X107.84 Y103.742 E.13298
G1 X107.303 Y103.742 E.01694
G1 X110.285 Y106.723 E.133
G1 X109.748 Y106.723 E.01694
G1 X106.767 Y103.742 E.13298
G1 X106.23 Y103.742 E.01694
G1 X109.212 Y106.723 E.133
G1 X108.675 Y106.723 E.01694
G1 X105.694 Y103.742 E.13298
G1 X105.157 Y103.742 E.01694
G1 X108.139 Y106.723 E.133
G1 X107.602 Y106.723 E.01694
G1 X104.621 Y103.742 E.13298
G1 X104.084 Y103.742 E.01694
G1 X107.066 Y106.723 E.133
G1 X106.529 Y106.723 E.01694
G1 X103.548 Y103.742 E.13298
G1 X103.011 Y103.742 E.01694
G1 X105.993 Y106.723 E.133
G1 X105.456 Y106.723 E.01694
G1 X102.475 Y103.742 E.13298
G1 X101.938 Y103.742 E.01694
G1 X104.92 Y106.723 E.133
G1 X104.383 Y106.723 E.01694
G1 X101.402 Y103.742 E.13298
G1 X100.866 Y103.742 E.01691
G1 X103.847 Y106.723 E.13298
G1 X103.31 Y106.723 E.01694
G1 X100.329 Y103.742 E.13298
G1 X99.793 Y103.742 E.01691
G1 X102.774 Y106.723 E.13298
G1 X102.237 Y106.723 E.01694
G1 X99.256 Y103.742 E.13298
G1 X98.72 Y103.742 E.01691
G1 X101.701 Y106.723 E.13298
G1 X101.164 Y106.723 E.01694
G1 X98.183 Y103.742 E.13298
G1 X98.055 Y103.742 E.00404
G1 X98.055 Y104.15 E.01287
G1 X100.628 Y106.723 E.11478
G1 X100.092 Y106.723 E.01691
G1 X98.055 Y104.686 E.09087
G1 X98.055 Y105.223 E.01694
G1 X99.555 Y106.723 E.06691
G1 X99.019 Y106.723 E.01691
G1 X98.055 Y105.759 E.043
G1 X98.055 Y106.296 E.01694
G1 X98.652 Y106.893 E.02663
M106 S255
;LAYER_CHANGE
;Z:0.28
;HEIGHT:0.08
;BEFORE_LAYER_CHANGE
G92 E0
;0.28


G1 E-3.5 F3600
;WIPE_START
G1 F7200
G1 X98.055 Y106.296 E-.40104
G1 X98.055 Y105.759 E-.25508
G1 X99.019 Y106.723 E-.64757
G1 X99.432 Y106.723 E-.19631
;WIPE_END
G1 Z.28 F9000
;AFTER_LAYER_CHANGE
;0.28
M104 S200 ; set temperature
; stop printing object cantoneira (1).stl id:0 copy 0
G1 X93.134 Y106.893
G1 E5 F2400
;TYPE:Skirt/Brim
;WIDTH:0.42
G1 X93.134 Y102.385 E.0604
G1 X93.529 Y100.755 E.02247
G1 X94.625 Y99.486 E.02247
G1 X96.7 Y98.82 E.0292
G1 X134.3 Y98.82 E.50377
G1 X135.93 Y99.214 E.02247
G1 X137.199 Y100.31 E.02247
G1 X137.866 Y102.385 E.0292
G1 X137.866 Y116.042 E.18298
G1 X137.471 Y117.672 E.02247
G1 X136.375 Y118.942 E.02248
G1 X134.3 Y119.608 E.0292
G1 X96.7 Y119.608 E.50377
G1 X95.07 Y119.213 E.02247
G1 X93.801 Y118.117 E.02247
G1 X93.134 Y116.042 E.0292
G1 X93.134 Y106.953 E.12178
G1 X93.511 Y106.953 F9000
G1 F2400
G1 X93.511 Y102.385 E.0612
G1 X93.905 Y100.85 E.02123
G1 X94.989 Y99.694 E.02123
G1 X96.7 Y99.197 E.02387
G1 X134.3 Y99.197 E.50377
G1 X135.835 Y99.59 E.02123
G1 X136.991 Y100.674 E.02123
G1 X137.489 Y102.385 E.02388
G1 X137.489 Y116.042 E.18298
G1 X137.095 Y117.577 E.02123
G1 X136.011 Y118.733 E.02123
G1 X134.3 Y119.231 E.02388
G1 X96.7 Y119.231 E.50377
G1 X95.165 Y118.837 E.02123
G1 X94.009 Y117.753 E.02123
G1 X93.511 Y116.042 E.02388
G1 X93.511 Y107.013 E.12097
G1 E-3.5 F3600
;WIPE_START
G1 F7200
G1 X93.511 Y106.953 E-.0285
G1 X93.511 Y103.855 E-1.4715
;WIPE_END
; printing object cantoneira (1).stl id:0 copy 0
G1 X97.746 Y103.431 F9000
G1 E5 F2400
;TYPE:Perimeter
;WIDTH:0.439999
G1 X133.254 Y103.431 E.49936
G1 X133.254 Y114.996 E.16264
G1 X97.746 Y114.996 E.49936
G1 X97.746 Y103.491 E.1618
G1 X97.323 Y103.008 F9000
G1 F2400
G1 X133.677 Y103.008 E.51126
G1 X133.677 Y115.419 E.17454
G1 X97.323 Y115.419 E.51126
G1 X97.323 Y103.068 E.1737
G1 X96.91 Y102.595 F9000
;TYPE:External perimeter
;WIDTH:0.419999
G1 F1500
G1 X134.09 Y102.595 E.49815
G1 X134.09 Y115.832 E.17735
G1 X96.91 Y115.832 E.49815
G1 X96.91 Y102.655 E.17655
G1 E-3.5 F3600
;WIPE_START
G1 F7200
G1 X96.91 Y102.595 E-.0285
G1 X100.008 Y102.595 E-1.4715
;WIPE_END
G1 X97.879 Y114.689 F9000
G1 E5 F2400
M204 S250
;TYPE:Bridge infill
;WIDTH:0.335518
;HEIGHT:0.334664
G1 F1500
G1 X132.948 Y114.689 E1.28908
G1 X132.948 Y114.304 E.01415
G1 X98.052 Y114.304 E1.28272
G1 X98.052 Y113.918 E.01419
G1 X132.948 Y113.918 E1.28272
G1 X132.948 Y113.533 E.01415
G1 X98.052 Y113.533 E1.28272
G1 X98.052 Y113.147 E.01419
G1 X132.948 Y113.147 E1.28272
G1 X132.948 Y112.762 E.01415
G1 X98.052 Y112.762 E1.28272
G1 X98.052 Y112.376 E.01419
G1 X132.948 Y112.376 E1.28272
G1 X132.948 Y111.991 E.01415
G1 X98.052 Y111.991 E1.28272
G1 X98.052 Y111.605 E.01419
G1 X132.948 Y111.605 E1.28272
G1 X132.948 Y111.22 E.01415
G1 X98.052 Y111.22 E1.28272
G1 X98.052 Y110.834 E.01419
G1 X132.948 Y110.834 E1.28272
G1 X132.948 Y110.449 E.01415
G1 X98.052 Y110.449 E1.28272
G1 X98.052 Y110.063 E.01419
G1 X132.948 Y110.063 E1.28272
G1 X132.948 Y109.678 E.01415
G1 X98.052 Y109.678 E1.28272
G1 X98.052 Y109.292 E.01419
G1 X132.948 Y109.292 E1.28272
G1 X132.948 Y108.907 E.01415
G1 X98.052 Y108.907 E1.28272
G1 X98.052 Y108.521 E.01419
G1 X132.948 Y108.521 E1.28272
G1 X132.948 Y108.136 E.01415
G1 X98.052 Y108.136 E1.28272
G1 X98.052 Y107.75 E.01419
G1 X132.948 Y107.75 E1.28272
G1 X132.948 Y107.365 E.01415
G1 X98.052 Y107.365 E1.28272
G1 X98.052 Y106.979 E.01419
G1 X132.948 Y106.979 E1.28272
G1 X132.948 Y106.594 E.01415
G1 X98.052 Y106.594 E1.28272
G1 X98.052 Y106.208 E.01419
G1 X133.121 Y106.208 E1.28908
M204 S500
G1 E-3.5 F3600
;WIPE_START
G1 F7200
G1 X129.963 Y106.208 E-1.5
;WIPE_END
G1 X132.717 Y103.756 F9000
G1 E5 F2400
;TYPE:Solid infill
;WIDTH:0.439999
;HEIGHT:0.08
G1 X98.071 Y103.756 E.48724
G1 X98.071 Y105.804 E.0288
G1 X132.929 Y105.804 E.49022
G1 X132.929 Y103.756 E.0288
G1 X132.506 Y104.179 E.00841
G1 X132.506 Y105.381 E.0169
G1 X98.494 Y105.381 E.47832
G1 X98.494 Y104.179 E.0169
G1 X132.295 Y104.179 E.47536
G1 X132.1 Y104.585 E.00633
;WIDTH:0.406705
G1 X132.1 Y104.975 E.00505
G1 X98.9 Y104.975 E.43014
G1 X98.9 Y104.585 E.00505
G1 X131.888 Y104.585 E.42739
;LAYER_CHANGE
;Z:0.36
;HEIGHT:0.08
;BEFORE_LAYER_CHANGE
G92 E0
;0.36


G1 E-3.5 F3600
;WIPE_START
G1 F7200
G1 X128.73 Y104.585 E-1.5
;WIPE_END
G1 Z.36 F9000
;AFTER_LAYER_CHANGE
;0.36
G1 X133.254 Y103.429
G1 E5 F2400
;TYPE:Perimeter
;WIDTH:0.439999
G1 X133.254 Y119.547 E.22667
G1 X97.746 Y119.547 E.49936
G1 X97.746 Y103.429 E.22667
G1 X133.194 Y103.429 E.49852
G1 X133.677 Y103.007 F9000
G1 F2400
G1 X133.677 Y119.97 E.23856
G1 X97.323 Y119.97 E.51126
G1 X97.323 Y103.007 E.23856
G1 X133.617 Y103.007 E.51042
G1 X134.09 Y102.594 F9000
;TYPE:External perimeter
;WIDTH:0.419999
G1 F1500
G1 X134.09 Y120.383 E.23834
G1 X96.91 Y120.383 E.49815
G1 X96.91 Y102.594 E.23834
G1 X134.03 Y102.594 E.49734
G1 E-3.5 F3600
;WIPE_START
G1 F7200
G1 X134.09 Y102.594 E-.0285
G1 X134.09 Y105.692 E-1.4715
;WIPE_END
G1 X98.106 Y113.653 F9000
G1 E5 F2400
;TYPE:Solid infill
;WIDTH:0.542588
G1 X98.059 Y113.7 E.00116
G1 X98.076 Y113.763 E.00114
G1 X98.14 Y113.78 E.00116
G1 X98.186 Y113.734 E.00114
G1 X98.169 Y113.67 E.00116
;WIDTH:0.439999
G1 X98.071 Y112.995 E.00959
G1 X98.844 Y113.768 E.01537
G1 X99.442 Y113.768 E.00841
G1 X98.071 Y112.397 E.02727
G1 X98.071 Y111.799 E.00841
G1 X100.04 Y113.768 E.03916
G1 X100.638 Y113.768 E.00841
G1 X98.071 Y111.201 E.05105
G1 X98.071 Y110.603 E.00841
G1 X101.236 Y113.768 E.06295
G1 X101.834 Y113.768 E.00841
G1 X98.071 Y110.005 E.07484
G1 X98.071 Y109.407 E.00841
G1 X102.432 Y113.768 E.08673
G1 X103.03 Y113.768 E.00841
G1 X98.071 Y108.809 E.09863
G1 X98.071 Y108.211 E.00841
G1 X103.628 Y113.768 E.11052
G1 X104.226 Y113.768 E.00841
G1 X98.071 Y107.613 E.12241
G1 X98.071 Y107.015 E.00841
G1 X104.824 Y113.768 E.13431
G1 X105.422 Y113.768 E.00841
G1 X98.071 Y106.417 E.1462
G1 X98.071 Y105.819 E.00841
G1 X106.02 Y113.768 E.1581
G1 X106.618 Y113.768 E.00841
G1 X98.071 Y105.221 E.16999
G1 X98.071 Y104.623 E.00841
G1 X107.216 Y113.768 E.18188
G1 X107.814 Y113.768 E.00841
G1 X98.071 Y104.025 E.19378
G1 X98.399 Y103.755 E.00597
G1 X108.412 Y113.768 E.19915
G1 X109.01 Y113.768 E.00841
G1 X98.997 Y103.755 E.19915
G1 X99.595 Y103.755 E.00841
G1 X109.608 Y113.768 E.19915
G1 X110.206 Y113.768 E.00841
G1 X100.193 Y103.755 E.19915
G1 X100.791 Y103.755 E.00841
G1 X110.804 Y113.768 E.19915
G1 X111.402 Y113.768 E.00841
G1 X101.389 Y103.755 E.19915
G1 X101.987 Y103.755 E.00841
G1 X112 Y113.768 E.19915
G1 X112.598 Y113.768 E.00841
G1 X102.585 Y103.755 E.19915
G1 X103.183 Y103.755 E.00841
G1 X113.196 Y113.768 E.19915
G1 X113.794 Y113.768 E.00841
G1 X103.781 Y103.755 E.19915
G1 X104.379 Y103.755 E.00841
G1 X114.392 Y113.768 E.19915
G1 X114.99 Y113.768 E.00841
G1 X104.977 Y103.755 E.19915
G1 X105.574 Y103.755 E.0084
G1 X115.588 Y113.768 E.19916
G1 X116.186 Y113.768 E.00841
G1 X106.172 Y103.755 E.19916
G1 X106.77 Y103.755 E.00841
G1 X116.784 Y113.768 E.19916
G1 X117.382 Y113.768 E.00841
G1 X107.368 Y103.755 E.19916
G1 X107.966 Y103.755 E.00841
G1 X117.98 Y113.768 E.19916
G1 X118.577 Y113.768 E.0084
G1 X108.564 Y103.755 E.19915
G1 X109.162 Y103.755 E.00841
G1 X119.175 Y113.768 E.19915
G1 X119.773 Y113.768 E.00841
G1 X109.76 Y103.755 E.19915
G1 X110.358 Y103.755 E.00841
G1 X120.371 Y113.768 E.19915
G1 X120.969 Y113.768 E.00841
G1 X110.956 Y103.755 E.19915
G1 X111.554 Y103.755 E.00841
G1 X121.567 Y113.768 E.19915
G1 X122.165 Y113.768 E.00841
G1 X112.152 Y103.755 E.19915
G1 X112.75 Y103.755 E.00841
G1 X122.763 Y113.768 E.19915
G1 X123.361 Y113.768 E.00841
G1 X113.348 Y103.755 E.19915
G1 X113.946 Y103.755 E.00841
G1 X123.959 Y113.768 E.19915
G1 X124.557 Y113.768 E.00841
G1 X114.544 Y103.755 E.19915
G1 X115.142 Y103.755 E.00841
G1 X125.155 Y113.768 E.19915
G1 X125.753 Y113.768 E.00841
G1 X115.74 Y103.755 E.19915
G1 X116.338 Y103.755 E.00841
G1 X126.351 Y113.768 E.19915
G1 X126.949 Y113.768 E.00841
G1 X116.936 Y103.755 E.19915
G1 X117.534 Y103.755 E.00841
G1 X127.547 Y113.768 E.19915
G1 X128.145 Y113.768 E.00841
G1 X118.132 Y103.755 E.19915
G1 X118.73 Y103.755 E.00841
G1 X128.743 Y113.768 E.19915
G1 X129.341 Y113.768 E.00841
G1 X119.328 Y103.755 E.19915
G1 X119.926 Y103.755 E.00841
G1 X129.939 Y113.768 E.19915
G1 X130.537 Y113.768 E.00841
G1 X120.524 Y103.755 E.19915
G1 X121.122 Y103.755 E.00841
G1 X131.135 Y113.768 E.19915
G1 X131.733 Y113.768 E.00841
G1 X121.72 Y103.755 E.19915
G1 X122.318 Y103.755 E.00841
G1 X132.331 Y113.768 E.19915
G1 X132.929 Y113.768 E.00841
G1 X122.916 Y103.755 E.19915
G1 X123.514 Y103.755 E.00841
G1 X132.929 Y113.17 E.18725
G1 X132.929 Y112.572 E.00841
G1 X124.112 Y103.755 E.17536
G1 X124.71 Y103.755 E.00841
