;FLAVOR:Marlin
;TIME:5429
;Filament used: 3.29923m
;Layer height: 0.2
;MINX:85.128
;MINY:73.027
;MINZ:0.2
;MAXX:134.938
;MAXY:146.972
;MAXZ:27
;Generated with Creality Slicer 4.8.2-291
M140 S60
M105
M190 S60
M104 S200
M105
M109 S200
M82 ;absolute extrusion mode

G28 ;Home

G92 E0 ;Reset Extruder
G1 Z2.0 F3000 ;Move Z Axis up
G1 X10.1 Y20 Z0.28 F5000.0 ;Move to start position
G1 X10.1 Y200.0 Z0.28 F1500.0 E15 ;Draw the first line
G1 X10.4 Y200.0 Z0.28 F5000.0 ;Move to side a little
G1 X10.4 Y20 Z0.28 F1500.0 E30 ;Draw the second line
G92 E0 ;Reset Extruder
G1 Z2.0 F3000 ;Move Z Axis up

G92 E0
G92 E0
G1 F1500 E-4
;LAYER_COUNT:135
;LAYER:0
M107
G0 F6000 X91.024 Y77.493 Z0.2
;TYPE:SKIRT
G1 F1500 E0
G1 F1200 X91.342 Y77.12 E0.0163
G1 X91.505 Y76.937 E0.02445
G1 X92.158 Y76.264 E0.05564
G1 X93.083 Y75.48 E0.09597
G1 X93.239 Y75.362 E0.10248
G1 X94.01 Y74.829 E0.13365
G1 X94.825 Y74.363 E0.16488
G1 X95.675 Y73.968 E0.19605
G1 X96.818 Y73.568 E0.23633
G1 X97.136 Y73.476 E0.24734
G1 X98.047 Y73.254 E0.27853
G1 X98.974 Y73.111 E0.30972
G1 X100.006 Y73.045 E0.34412
G1 X101.075 Y73.028 E0.37968
G1 X121.97 Y73.027 E1.07465
G1 X122.831 Y73.038 E1.10329
G1 X123.768 Y73.091 E1.1345
G1 X125.154 Y73.32 E1.18123
G1 X125.448 Y73.388 E1.19126
G1 X126.352 Y73.638 E1.22246
G1 X127.231 Y73.964 E1.25364
G1 X128.079 Y74.364 E1.28482
G1 X129.133 Y74.994 E1.32567
G1 X129.368 Y75.153 E1.3351
G1 X130.122 Y75.712 E1.36632
G1 X130.825 Y76.332 E1.3975
G1 X131.38 Y76.905 E1.42403
G1 X131.452 Y76.985 E1.42761
G1 X131.794 Y77.384 E1.44509
G1 X131.937 Y77.559 E1.4526
G1 X132.499 Y78.31 E1.4838
G1 X133.035 Y79.177 E1.5177
G1 X133.095 Y79.285 E1.52181
G1 X133.33 Y79.732 E1.53861
G1 X133.49 Y80.054 E1.55057
G1 X133.943 Y81.097 E1.58839
G1 X133.983 Y81.204 E1.59219
G1 X134.182 Y81.785 E1.61262
G1 X134.253 Y82.013 E1.62056
G1 X134.357 Y82.369 E1.63289
G1 X134.393 Y82.5 E1.63741
G1 X134.507 Y82.952 E1.65292
G1 X134.578 Y83.261 E1.66346
G1 X134.729 Y84.051 E1.69021
G1 X134.741 Y84.129 E1.69284
G1 X134.828 Y84.855 E1.71716
G1 X134.877 Y85.422 E1.73609
G1 X134.916 Y86.16 E1.76067
G1 X134.936 Y87.213 E1.7957
G1 X134.938 Y87.422 E1.80265
G1 X134.937 Y132.462 E3.30068
G1 X134.916 Y133.718 E3.34247
G1 X134.904 Y134.075 E3.35435
G1 X134.886 Y134.432 E3.36623
G1 X134.824 Y135.172 E3.39093
G1 X134.781 Y135.535 E3.40309
G1 X134.629 Y136.467 E3.4345
G1 X134.579 Y136.709 E3.44272
G1 X134.398 Y137.455 E3.46825
G1 X134.249 Y137.986 E3.48659
G1 X133.957 Y138.877 E3.51778
G1 X133.741 Y139.412 E3.53697
G1 X133.659 Y139.6 E3.54379
G1 X133.269 Y140.403 E3.57348
G1 X133.159 Y140.608 E3.58122
G1 X132.501 Y141.681 E3.62308
G1 X132.451 Y141.753 E3.626
G1 X132.023 Y142.329 E3.64987
G1 X131.871 Y142.52 E3.65799
G1 X131.256 Y143.228 E3.68918
G1 X130.457 Y143.992 E3.72595
G1 X130.047 Y144.334 E3.7437
G1 X129.867 Y144.477 E3.75135
G1 X129.109 Y145.028 E3.78252
G1 X128.306 Y145.513 E3.81372
G1 X127.465 Y145.928 E3.84491
G1 X126.237 Y146.385 E3.88849
G1 X125.916 Y146.483 E3.89965
G1 X125.008 Y146.718 E3.93085
G1 X124.083 Y146.875 E3.96206
G1 X123.09 Y146.955 E3.99519
G1 X122.862 Y146.963 E4.00278
G1 X122.561 Y146.97 E4.01279
G1 X122.303 Y146.972 E4.02137
G1 X100.754 Y146.971 E4.7381
G1 X100.053 Y146.961 E4.76141
G1 X99.117 Y146.908 E4.7926
G1 X98.188 Y146.775 E4.82381
G1 X97.498 Y146.623 E4.84731
G1 X97.211 Y146.55 E4.85716
G1 X96.313 Y146.28 E4.88835
G1 X95.441 Y145.935 E4.91954
G1 X94.602 Y145.516 E4.95073
G1 X93.61 Y144.897 E4.98962
G1 X93.366 Y144.726 E4.99953
G1 X92.622 Y144.156 E5.0307
G1 X91.928 Y143.524 E5.06192
G1 X91.143 Y142.656 E5.10085
G1 X90.978 Y142.453 E5.10955
G1 X90.418 Y141.701 E5.14073
G1 X90.136 Y141.265 E5.158
G1 X89.761 Y140.652 E5.1819
G1 X88.784 Y139.022 E5.24511
G1 X87.396 Y136.85 E5.33084
G1 X86.909 Y136.099 E5.36061
G1 X86.434 Y135.291 E5.39179
G1 X86.029 Y134.445 E5.42298
G1 X85.698 Y133.567 E5.45419
G1 X85.443 Y132.665 E5.48537
G1 X85.266 Y131.744 E5.51656
G1 X85.162 Y130.713 E5.55103
G1 X85.152 Y130.526 E5.55726
G1 X85.137 Y130.089 E5.5718
G1 X85.128 Y129.351 E5.59635
G1 X85.129 Y121.478 E5.8582
G1 X85.139 Y120.78 E5.88142
G1 X85.191 Y119.862 E5.912
G1 X85.286 Y118.893 E5.94439
G1 X85.51 Y116.257 E6.03238
G1 X85.651 Y113.741 E6.11619
G1 X85.722 Y111.216 E6.20021
G1 X85.722 Y108.692 E6.28415
G1 X85.651 Y106.207 E6.36684
G1 X85.506 Y103.672 E6.45129
G1 X85.291 Y101.144 E6.53568
G1 X85.234 Y100.611 E6.55351
G1 X85.187 Y100.088 E6.57097
G1 X85.155 Y99.619 E6.58661
G1 X85.148 Y99.47 E6.59157
G1 X85.137 Y99.094 E6.60408
G1 X85.128 Y98.327 E6.62959
G1 X85.129 Y90.517 E6.88935
G1 X85.14 Y89.811 E6.91284
G1 X85.195 Y88.874 E6.94405
G1 X85.329 Y87.946 E6.97524
G1 X85.517 Y87.125 E7.00325
G1 X85.556 Y86.98 E7.00825
G1 X85.838 Y86.085 E7.03946
G1 X86.195 Y85.218 E7.07064
G1 X86.624 Y84.385 E7.10181
G1 X86.917 Y83.902 E7.1206
G1 X87.538 Y82.935 E7.15882
G1 X87.799 Y82.541 E7.17454
G1 X89.652 Y79.534 E7.29202
G1 X89.91 Y79.098 E7.30887
G1 X90.289 Y78.502 E7.33236
G1 X90.464 Y78.245 E7.3427
G1 X91.024 Y77.493 E7.37389
G0 F6000 X91.641 Y77.386
G1 F1200 X91.804 Y77.203 E7.38204
G1 X92.445 Y76.542 E7.41266
G1 X93.324 Y75.799 E7.45094
G1 X93.48 Y75.681 E7.45745
G1 X94.238 Y75.158 E7.48808
G1 X95.038 Y74.703 E7.51869
G1 X95.875 Y74.319 E7.54932
G1 X96.929 Y73.953 E7.58643
G1 X97.247 Y73.861 E7.59744
G1 X98.142 Y73.643 E7.62807
G1 X99.052 Y73.505 E7.65869
G1 X100.013 Y73.445 E7.69071
G1 X101.075 Y73.428 E7.72604
G1 X121.97 Y73.427 E8.42101
G1 X122.826 Y73.438 E8.44948
G1 X123.745 Y73.491 E8.4801
G1 X125.064 Y73.71 E8.52457
G1 X125.358 Y73.778 E8.53461
G1 X126.245 Y74.024 E8.56522
G1 X127.107 Y74.346 E8.59583
G1 X127.938 Y74.742 E8.62645
G1 X128.909 Y75.326 E8.66413
G1 X129.144 Y75.485 E8.67357
G1 X129.883 Y76.033 E8.70417
G1 X130.572 Y76.644 E8.7348
G1 X131.083 Y77.173 E8.75926
G1 X131.155 Y77.253 E8.76284
G1 X131.484 Y77.637 E8.77966
G1 X131.627 Y77.812 E8.78718
G1 X132.178 Y78.549 E8.81778
G1 X132.685 Y79.371 E8.8499
G1 X132.745 Y79.479 E8.85401
G1 X132.972 Y79.91 E8.87021
G1 X133.132 Y80.232 E8.88217
G1 X133.568 Y81.237 E8.91861
G1 X133.608 Y81.344 E8.92241
G1 X133.8 Y81.904 E8.9421
G1 X133.871 Y82.132 E8.95004
G1 X133.971 Y82.475 E8.96193
G1 X134.007 Y82.606 E8.96644
G1 X134.117 Y83.041 E8.98137
G1 X134.188 Y83.35 E8.99191
G1 X134.334 Y84.112 E9.01772
G1 X134.346 Y84.19 E9.02034
G1 X134.43 Y84.889 E9.04376
G1 X134.479 Y85.456 E9.06269
G1 X134.516 Y86.168 E9.0864
G1 X134.536 Y87.221 E9.12143
G1 X134.538 Y87.422 E9.12812
G1 X134.537 Y132.462 E10.62615
G1 X134.516 Y133.711 E10.6677
G1 X134.505 Y134.055 E10.67915
G1 X134.487 Y134.412 E10.69104
G1 X134.426 Y135.125 E10.71484
G1 X134.383 Y135.488 E10.72699
G1 X134.238 Y136.386 E10.75725
G1 X134.188 Y136.628 E10.76547
G1 X134.013 Y137.347 E10.79008
G1 X133.864 Y137.878 E10.80842
G1 X133.577 Y138.753 E10.83905
G1 X133.374 Y139.252 E10.85697
G1 X133.292 Y139.44 E10.86379
G1 X132.916 Y140.214 E10.89241
G1 X132.806 Y140.419 E10.90015
G1 X132.173 Y141.453 E10.94047
G1 X132.123 Y141.525 E10.94339
G1 X131.71 Y142.08 E10.9664
G1 X131.558 Y142.271 E10.97452
G1 X130.954 Y142.965 E11.00512
G1 X130.196 Y143.689 E11.03998
G1 X129.799 Y144.021 E11.05719
G1 X129.619 Y144.164 E11.06484
G1 X128.874 Y144.704 E11.09544
G1 X128.084 Y145.179 E11.1261
G1 X127.257 Y145.583 E11.15672
G1 X126.12 Y146.002 E11.19702
G1 X125.799 Y146.1 E11.20818
G1 X124.908 Y146.33 E11.23879
G1 X124 Y146.483 E11.26941
G1 X123.076 Y146.555 E11.30024
G1 X122.558 Y146.57 E11.31747
G1 X122.3 Y146.572 E11.32606
G1 X100.76 Y146.571 E12.04248
G1 X100.059 Y146.561 E12.0658
G1 X99.14 Y146.508 E12.09641
G1 X98.229 Y146.375 E12.12704
G1 X97.597 Y146.235 E12.14857
G1 X97.31 Y146.162 E12.15841
G1 X96.428 Y145.896 E12.18906
G1 X95.573 Y145.555 E12.21967
G1 X94.751 Y145.142 E12.25027
G1 X93.84 Y144.57 E12.28605
G1 X93.596 Y144.399 E12.29596
G1 X92.865 Y143.838 E12.3266
G1 X92.186 Y143.216 E12.35723
G1 X91.453 Y142.404 E12.39361
G1 X91.288 Y142.201 E12.40231
G1 X90.739 Y141.462 E12.43293
G1 X90.477 Y141.056 E12.44901
G1 X90.104 Y140.446 E12.47279
G1 X89.122 Y138.807 E12.53634
G1 X87.738 Y136.643 E12.62177
G1 X87.245 Y135.882 E12.65193
G1 X86.779 Y135.088 E12.68255
G1 X86.384 Y134.257 E12.71315
G1 X86.062 Y133.394 E12.74379
G1 X85.817 Y132.507 E12.7744
G1 X85.649 Y131.601 E12.80504
G1 X85.561 Y130.692 E12.83542
G1 X85.551 Y130.505 E12.84165
G1 X85.537 Y130.083 E12.85569
G1 X85.528 Y129.351 E12.88004
G1 X85.529 Y121.484 E13.1417
G1 X85.539 Y120.786 E13.16491
G1 X85.589 Y119.901 E13.1944
G1 X85.688 Y118.889 E13.22822
G1 X85.91 Y116.279 E13.31534
G1 X86.051 Y113.774 E13.39879
G1 X86.122 Y111.227 E13.48353
G1 X86.122 Y108.715 E13.56708
G1 X86.049 Y106.173 E13.65166
G1 X85.905 Y103.652 E13.73565
G1 X85.689 Y101.106 E13.82063
G1 X85.653 Y100.781 E13.83151
G1 X85.586 Y100.052 E13.85586
G1 X85.555 Y99.6 E13.87093
G1 X85.548 Y99.451 E13.87589
G1 X85.537 Y99.089 E13.88794
G1 X85.528 Y98.327 E13.91328
G1 X85.529 Y90.523 E14.17284
G1 X85.54 Y89.817 E14.19633
G1 X85.595 Y88.898 E14.22695
G1 X85.728 Y87.987 E14.25757
G1 X85.903 Y87.229 E14.28344
G1 X85.942 Y87.084 E14.28844
G1 X86.219 Y86.206 E14.31906
G1 X86.572 Y85.356 E14.34967
G1 X86.997 Y84.539 E14.3803
G1 X87.253 Y84.118 E14.39669
G1 X87.871 Y83.156 E14.43472
G1 X88.135 Y82.757 E14.45063
G1 X90.003 Y79.726 E14.56905
G1 X90.254 Y79.302 E14.58544
G1 X90.619 Y78.727 E14.60809
G1 X90.794 Y78.47 E14.61843
G1 X91.641 Y77.386 E14.66419
G0 F6000 X91.939 Y77.652
G1 F1200 X92.102 Y77.469 E14.67234
G1 X92.732 Y76.822 E14.70237
G1 X93.566 Y76.118 E14.73868
G1 X93.722 Y76 E14.74518
G1 X94.465 Y75.488 E14.77519
G1 X95.251 Y75.043 E14.80523
G1 X96.074 Y74.67 E14.83529
G1 X97.04 Y74.337 E14.86927
G1 X97.358 Y74.245 E14.88028
G1 X98.236 Y74.032 E14.91033
G1 X99.129 Y73.899 E14.94036
G1 X100.02 Y73.844 E14.97005
G1 X100.903 Y73.829 E14.99942
G1 X121.971 Y73.827 E15.70015
G1 X122.82 Y73.838 E15.72839
G1 X123.721 Y73.891 E15.75841
G1 X124.974 Y74.099 E15.80065
G1 X125.268 Y74.167 E15.81069
G1 X126.138 Y74.41 E15.84073
G1 X126.983 Y74.728 E15.87076
G1 X127.796 Y75.12 E15.90078
G1 X128.685 Y75.657 E15.93533
G1 X128.92 Y75.816 E15.94476
G1 X129.645 Y76.355 E15.97481
G1 X130.319 Y76.955 E16.00482
G1 X130.786 Y77.441 E16.02724
G1 X130.858 Y77.521 E16.03082
G1 X131.174 Y77.89 E16.04698
G1 X131.317 Y78.065 E16.0545
G1 X131.857 Y78.789 E16.08454
G1 X132.335 Y79.565 E16.11485
G1 X132.395 Y79.673 E16.11896
G1 X132.613 Y80.088 E16.13455
G1 X132.773 Y80.41 E16.14651
G1 X133.193 Y81.377 E16.18158
G1 X133.233 Y81.484 E16.18538
G1 X133.418 Y82.023 E16.20433
G1 X133.489 Y82.251 E16.21227
G1 X133.585 Y82.581 E16.2237
G1 X133.621 Y82.712 E16.22822
G1 X133.727 Y83.131 E16.2426
G1 X133.798 Y83.44 E16.25314
G1 X133.938 Y84.173 E16.27796
G1 X133.95 Y84.251 E16.28059
G1 X134.031 Y84.924 E16.30313
G1 X134.08 Y85.491 E16.32206
G1 X134.116 Y86.175 E16.34484
G1 X134.136 Y87.228 E16.37987
G1 X134.138 Y87.422 E16.38632
G1 X134.137 Y132.462 E17.88436
G1 X134.116 Y133.704 E17.92568
G1 X134.105 Y134.035 E17.93669
G1 X134.087 Y134.392 E17.94858
G1 X134.029 Y135.078 E17.97148
G1 X133.986 Y135.441 E17.98364
G1 X133.846 Y136.305 E18.01275
G1 X133.796 Y136.547 E18.02097
G1 X133.628 Y137.239 E18.04465
G1 X133.479 Y137.77 E18.06299
G1 X133.196 Y138.628 E18.09304
G1 X133.007 Y139.092 E18.10971
G1 X132.925 Y139.28 E18.11653
G1 X132.564 Y140.025 E18.14406
G1 X132.454 Y140.23 E18.1518
G1 X131.844 Y141.225 E18.19062
G1 X131.794 Y141.297 E18.19354
G1 X131.397 Y141.83 E18.21564
G1 X131.245 Y142.021 E18.22376
G1 X130.652 Y142.703 E18.25382
G1 X129.934 Y143.387 E18.2868
G1 X129.55 Y143.707 E18.30343
G1 X129.37 Y143.85 E18.31107
G1 X128.639 Y144.38 E18.3411
G1 X127.863 Y144.844 E18.37117
G1 X127.05 Y145.236 E18.40119
G1 X126.003 Y145.619 E18.43827
G1 X125.682 Y145.717 E18.44944
G1 X124.808 Y145.943 E18.47946
G1 X123.917 Y146.09 E18.5095
G1 X123.062 Y146.156 E18.53802
G1 X122.834 Y146.164 E18.54561
G1 X122.555 Y146.17 E18.55489
G1 X122.297 Y146.172 E18.56347
G1 X100.766 Y146.171 E19.2796
G1 X100.065 Y146.161 E19.30291
G1 X99.163 Y146.108 E19.33297
G1 X98.27 Y145.976 E19.36299
G1 X97.696 Y145.847 E19.38256
G1 X97.409 Y145.774 E19.39241
G1 X96.544 Y145.513 E19.42246
G1 X95.706 Y145.176 E19.4525
G1 X94.901 Y144.767 E19.48253
G1 X94.069 Y144.242 E19.51525
G1 X93.825 Y144.071 E19.52516
G1 X93.109 Y143.52 E19.55521
G1 X92.445 Y142.909 E19.58522
G1 X91.764 Y142.152 E19.61909
G1 X91.599 Y141.949 E19.62779
G1 X90.818 Y140.847 E19.67272
G1 X90.448 Y140.241 E19.69633
G1 X89.475 Y138.617 E19.7593
G1 X88.063 Y136.409 E19.84647
G1 X87.581 Y135.665 E19.87595
G1 X87.125 Y134.886 E19.90598
G1 X86.739 Y134.069 E19.93603
G1 X86.427 Y133.221 E19.96608
G1 X86.191 Y132.35 E19.9961
G1 X86.034 Y131.46 E20.02616
G1 X85.961 Y130.671 E20.05251
G1 X85.951 Y130.484 E20.05874
G1 X85.937 Y130.078 E20.07225
G1 X85.928 Y129.351 E20.09643
G1 X85.929 Y121.49 E20.35789
G1 X85.939 Y120.792 E20.38111
G1 X85.987 Y119.941 E20.40946
G1 X86.083 Y118.967 E20.44201
G1 X86.309 Y116.3 E20.53103
G1 X86.451 Y113.773 E20.61521
G1 X86.522 Y111.238 E20.69956
G1 X86.522 Y108.704 E20.78384
G1 X86.449 Y106.138 E20.86922
G1 X86.305 Y103.631 E20.95274
G1 X86.088 Y101.073 E21.03813
G1 X86.031 Y100.539 E21.05599
G1 X85.984 Y100.016 E21.07345
G1 X85.954 Y99.582 E21.08792
G1 X85.947 Y99.433 E21.09289
G1 X85.937 Y99.084 E21.1045
G1 X85.928 Y98.327 E21.12968
G1 X85.929 Y90.529 E21.38904
G1 X85.94 Y89.823 E21.41252
G1 X85.994 Y88.922 E21.44255
G1 X86.128 Y88.028 E21.47261
G1 X86.289 Y87.333 E21.49634
G1 X86.328 Y87.188 E21.50133
G1 X86.601 Y86.327 E21.53138
G1 X86.949 Y85.493 E21.56143
G1 X87.59 Y84.333 E21.60551
G1 X88.12 Y83.506 E21.63818
G1 X88.472 Y82.974 E21.6594
G1 X90.341 Y79.942 E21.77787
G1 X90.599 Y79.505 E21.79474
G1 X90.95 Y78.952 E21.81653
G1 X91.125 Y78.695 E21.82687
G1 X91.939 Y77.652 E21.87088
G1 F1500 E17.87088
G0 F6000 X101.804 Y101.109
G0 X102.576 Y102.475
G0 X103.542 Y103.715
G0 X104.678 Y104.798
G0 X105.899 Y105.669
G0 X107.362 Y106.41
G0 X116.986 Y109.574
G0 X117.151 Y110
G1 F1500 E21.87088
G1 F1200 X117.602 Y109.8 E21.88728
G1 X117.766 Y109.723 E21.89331
G1 X118.244 Y109.483 E21.9111
G1 X118.414 Y109.392 E21.91751
G1 X118.876 Y109.13 E21.93518
G1 X119.036 Y109.034 E21.94138
G1 X119.476 Y108.755 E21.95871
G1 X119.626 Y108.655 E21.96471
G1 X120.067 Y108.345 E21.98264
G1 X120.138 Y108.293 E21.98557
G1 X120.137 Y111.708 E22.09915
G1 X120.078 Y111.664 E22.1016
G1 X119.653 Y111.363 E22.11892
G1 X119.491 Y111.254 E22.12541
G1 X119.038 Y110.967 E22.14325
G1 X118.871 Y110.867 E22.14972
G1 X118.41 Y110.607 E22.16733
G1 X118.263 Y110.528 E22.17288
G1 X117.796 Y110.291 E22.1903
G1 X117.612 Y110.204 E22.19706
G1 X117.151 Y110 E22.21383
G0 F6000 X116.96 Y109.648
G1 F1200 X117.44 Y109.435 E22.2313
G1 X117.587 Y109.366 E22.2367
G1 X118.065 Y109.126 E22.25449
G1 X118.216 Y109.045 E22.26019
G1 X118.678 Y108.783 E22.27785
G1 X118.822 Y108.696 E22.28345
G1 X119.262 Y108.417 E22.30078
G1 X119.396 Y108.328 E22.30613
G1 X119.837 Y108.018 E22.32406
G1 X119.976 Y107.915 E22.32981
G1 X120.397 Y107.586 E22.34758
G1 X120.538 Y107.47 E22.35365
G1 X120.537 Y112.531 E22.52198
G1 X120.389 Y112.408 E22.52838
G1 X119.972 Y112.083 E22.54597
G1 X119.847 Y111.99 E22.55115
G1 X119.422 Y111.689 E22.56847
G1 X119.277 Y111.592 E22.57428
G1 X118.824 Y111.305 E22.59211
G1 X118.674 Y111.216 E22.59791
G1 X118.213 Y110.956 E22.61552
G1 X118.082 Y110.885 E22.62047
G1 X117.615 Y110.648 E22.63789
G1 X117.45 Y110.57 E22.64396
G1 X116.968 Y110.357 E22.66149
G1 X116.817 Y110.295 E22.66692
G1 X116.314 Y110.101 E22.68485
G1 X116.026 Y110 E22.695
G1 X116.297 Y109.907 E22.70453
G1 X116.798 Y109.715 E22.72237
G1 X116.96 Y109.648 E22.7282
